img/ts-logo.svg

<svg width="31" height="31" viewBox="0 0 31 31" fill="none" xmlns="http://www.w3.org/2000/svg">
<g clip-path="url(#clip0_85_9921)">
<path d="M0.571411 15.5V30.5H15.5714H30.5714V15.5V0.5H15.5714H0.571411V15.5Z" fill="#007ACC"/>
<path d="M7.20555 15.5995L7.19603 16.8281H9.14841H11.1008L11.1008 22.3757V27.9233H12.4817H13.8627V22.3757L13.8627 16.8281H15.8151H17.7675V15.6233C17.7675 14.9567 17.7532 14.3995 17.7341 14.3852C17.7198 14.3662 15.3436 14.3567 12.4627 14.3614L7.21984 14.3757L7.20555 15.5995Z" fill="white"/>
<path d="M24.7784 14.3408C25.5403 14.5313 26.1213 14.8694 26.6546 15.4218C26.9308 15.717 27.3403 16.2551 27.3736 16.3837C27.3832 16.4218 26.0784 17.298 25.2879 17.7885C25.2593 17.8075 25.1451 17.6837 25.0165 17.4932C24.6308 16.9313 24.226 16.6885 23.607 16.6456C22.6974 16.5837 22.1117 17.0599 22.1165 17.8551C22.1165 18.0885 22.1498 18.2266 22.2451 18.417C22.4451 18.8313 22.8165 19.0789 23.9832 19.5837C26.1308 20.5075 27.0498 21.117 27.6213 21.9837C28.2593 22.9504 28.4022 24.4932 27.9689 25.6408C27.4927 26.8885 26.3117 27.7361 24.6498 28.017C24.1355 28.1075 22.9165 28.0932 22.3641 27.9932C21.1593 27.7789 20.0165 27.1837 19.3117 26.4027C19.0355 26.098 18.4974 25.3027 18.5308 25.2456C18.5451 25.2266 18.6689 25.1504 18.807 25.0694C18.9403 24.9932 19.4451 24.7027 19.9213 24.4266L20.7832 23.9266L20.9641 24.1932C21.2165 24.5789 21.7689 25.1075 22.1022 25.2837C23.0593 25.7885 24.3736 25.717 25.0213 25.1361C25.2974 24.8837 25.4117 24.6218 25.4117 24.2361C25.4117 23.8885 25.3689 23.7361 25.1879 23.4742C24.9546 23.1408 24.4784 22.8599 23.126 22.2742C21.5784 21.6075 20.9117 21.1932 20.3022 20.5361C19.9498 20.1551 19.6165 19.5456 19.4784 19.0361C19.3641 18.6123 19.3355 17.5504 19.426 17.1218C19.7451 15.6266 20.8736 14.5837 22.5022 14.2742C23.0308 14.1742 24.2593 14.2123 24.7784 14.3408Z" fill="white"/>
</g>
<defs>
<clipPath id="clip0_85_9921">
<rect width="30" height="30" fill="white" transform="translate(0.571411 0.5)"/>
</clipPath>
</defs>
</svg>

<svg xmlns="http://www.w3.org/2000/svg" width="31" height="31" fill="none"><g clip-path="url(#a)"><path fill="#007ACC" d="M.571 15.5v15h30V.5h-30v15Z"/><path fill="#fff" d="m7.206 15.6-.01 1.228H11.101V27.923H13.863V16.828h3.904v-1.205c0-.666-.014-1.223-.033-1.238-.014-.019-2.39-.028-5.271-.024l-5.243.015-.014 1.224ZM24.778 14.34c.762.191 1.343.53 1.877 1.082.276.295.685.833.719.962.01.038-1.296.914-2.086 1.404-.029.02-.143-.104-.271-.295-.386-.562-.791-.804-1.41-.847-.91-.062-1.495.414-1.49 1.21 0 .232.033.37.128.561.2.414.572.662 1.738 1.167 2.148.924 3.067 1.533 3.638 2.4.638.966.781 2.51.348 3.657-.476 1.248-1.657 2.095-3.32 2.376-.514.09-1.733.076-2.285-.024-1.205-.214-2.348-.81-3.052-1.59-.277-.305-.815-1.1-.781-1.157.014-.02.138-.096.276-.177.133-.076.638-.366 1.114-.642l.862-.5.181.266c.253.386.805.915 1.138 1.09.957.505 2.272.434 2.92-.147.275-.252.39-.514.39-.9 0-.348-.043-.5-.224-.762-.233-.333-.71-.614-2.062-1.2-1.548-.666-2.214-1.08-2.824-1.738a3.956 3.956 0 0 1-.824-1.5c-.114-.424-.143-1.486-.052-1.914.32-1.495 1.448-2.538 3.076-2.848.529-.1 1.757-.062 2.276.067Z"/></g><defs><clipPath id="a"><path fill="#fff" d="M.571.5h30v30h-30z"/></clipPath></defs></svg>
